X: 42857
T: Wild Irishman, The
R: reel
M: 4/4
K: Dmajor
A|:d2fd gdfd|dfed cdec|d2fd gdfd|gfge cABc|
d2fd gdfd|dfed cdec|d2fd ~g3e|cBcA ~d3:|
f|:edcB A2(3cBA|eAfA eAfA|edcB A2ce|fgfe d3:|

